src/icons/hds/ui/zoom-in.svg

<svg xmlns="http://www.w3.org/2000/svg" width="24" height="24" viewBox="0 0 24 24">
  <g fill="none" fill-rule="evenodd">
    <rect width="24" height="24"/>
    <path fill="currentColor" d="M14,2 C18.418278,2 22,5.581722 22,10 C22,14.418278 18.418278,18 14,18 C12.1298125,18 10.4095103,17.3582644 9.04728594,16.2829857 L3.41421356,21.9142136 L2,20.5 L7.6421731,14.856407 C6.61202544,13.5098196 6,11.8263829 6,10 C6,5.581722 9.581722,2 14,2 Z M14,4 C10.6862915,4 8,6.6862915 8,10 C8,13.3137085 10.6862915,16 14,16 C17.3137085,16 20,13.3137085 20,10 C20,6.6862915 17.3137085,4 14,4 Z M15,6 L15,9 L18,9 L18,11 L15,11 L15,14 L13,14 L13,11 L10,11 L10,9 L13,9 L13,6 L15,6 Z"/>
  </g>
</svg>

<svg viewBox="0 0 24 24" role="img" xmlns="http://www.w3.org/2000/svg"><g fill="none" fill-rule="evenodd"><path d="M0 0h24v24H0z"/><path d="M14 2a8 8 0 11-4.953 14.283l-5.633 5.631L2 20.5l5.642-5.644A8 8 0 0114 2zm0 2a6 6 0 100 12 6 6 0 000-12zm1 2v3h3v2h-3v3h-2v-3h-3V9h3V6h2z" fill="currentColor"/></g></svg>
